src/assets/outline/Trello.svg

<?xml version="1.0" encoding="UTF-8"?>
<svg width="24" height="24" viewBox="0 0 24 24" xmlns="http://www.w3.org/2000/svg">
 <path d="m15 22.75h-6c-5.43 0-7.75-2.32-7.75-7.75v-6c0-5.43 2.32-7.75 7.75-7.75h6c5.43 0 7.75 2.32 7.75 7.75v6c0 5.43-2.32 7.75-7.75 7.75zm-6-20c-4.61 0-6.25 1.64-6.25 6.25v6c0 4.61 1.64 6.25 6.25 6.25h6c4.61 0 6.25-1.64 6.25-6.25v-6c0-4.61-1.64-6.25-6.25-6.25h-6z"/>
 <path d="m9.5499 18.469h-2.45c-1.09 0-1.97-0.89-1.97-1.98v-8.98c0-1.09 0.88997-1.98 1.97-1.98h2.45c1.09 0 1.98 0.89001 1.98 1.98v8.98c0 1.09-0.89 1.98-1.98 1.98zm-2.45-11.44c-0.26 0-0.46997 0.22001-0.46997 0.48001v8.98c0 0.26 0.21997 0.48 0.46997 0.48h2.45c0.26 0 0.48003-0.22 0.48003-0.48v-8.98c0-0.26-0.22003-0.48001-0.48003-0.48001h-2.45z"/>
 <path d="m17.14 14.379h-2.94c-0.96 0-1.7301-0.78-1.7301-1.73v-5.39c0-0.96 0.7801-1.73 1.7301-1.73h2.94c0.96 0 1.73 0.78001 1.73 1.73v5.39c0.01 0.96-0.77 1.73-1.73 1.73zm-2.93-7.35c-0.13 0-0.2301 0.11001-0.2301 0.23001v5.39c0 0.13 0.1101 0.23 0.2301 0.23h2.94c0.13 0 0.23-0.11 0.23-0.23v-5.39c0-0.13-0.11-0.23001-0.23-0.23001h-2.94z"/>
</svg>

<svg width="24" height="24" viewBox="0 0 24 24"  xmlns="http://www.w3.org/2000/svg">
<path d="M15 22.75H9C3.57 22.75 1.25 20.43 1.25 15V9C1.25 3.57 3.57 1.25 9 1.25H15C20.43 1.25 22.75 3.57 22.75 9V15C22.75 20.43 20.43 22.75 15 22.75ZM9 2.75C4.39 2.75 2.75 4.39 2.75 9V15C2.75 19.61 4.39 21.25 9 21.25H15C19.61 21.25 21.25 19.61 21.25 15V9C21.25 4.39 19.61 2.75 15 2.75H9Z" />
<path d="M9.54987 18.4693H7.09985C6.00985 18.4693 5.12988 17.5793 5.12988 16.4893V7.50931C5.12988 6.41931 6.01985 5.5293 7.09985 5.5293H9.54987C10.6399 5.5293 11.5299 6.41931 11.5299 7.50931V16.4893C11.5299 17.5793 10.6399 18.4693 9.54987 18.4693ZM7.09985 7.0293C6.83985 7.0293 6.62988 7.24931 6.62988 7.50931V16.4893C6.62988 16.7493 6.84985 16.9693 7.09985 16.9693H9.54987C9.80987 16.9693 10.0299 16.7493 10.0299 16.4893V7.50931C10.0299 7.24931 9.80987 7.0293 9.54987 7.0293H7.09985Z" />
<path d="M17.1398 14.3793H14.1998C13.2398 14.3793 12.4697 13.5993 12.4697 12.6493V7.25931C12.4697 6.29931 13.2498 5.5293 14.1998 5.5293H17.1398C18.0998 5.5293 18.8698 6.30931 18.8698 7.25931V12.6493C18.8798 13.6093 18.0998 14.3793 17.1398 14.3793ZM14.2098 7.0293C14.0798 7.0293 13.9797 7.13931 13.9797 7.25931V12.6493C13.9797 12.7793 14.0898 12.8793 14.2098 12.8793H17.1498C17.2798 12.8793 17.3798 12.7693 17.3798 12.6493V7.25931C17.3798 7.12931 17.2698 7.0293 17.1498 7.0293H14.2098Z" />
</svg>
